dist/img/icon/icon-facebook.svg

<svg width="38" height="72" viewBox="0 0 38 72" fill="none" xmlns="http://www.w3.org/2000/svg">
<path d="M25.1666 41.3751H34.1249L37.7083 27.0418H25.1666V19.8751C25.1666 16.1843 25.1666 12.7084 32.3333 12.7084H37.7083V0.668415C36.5401 0.514332 32.129 0.166748 27.4707 0.166748C17.7419 0.166748 10.8333 6.10433 10.8333 17.0084V27.0418H0.083252V41.3751H10.8333V71.8334H25.1666V41.3751Z" fill="#3C3C3C"/>
</svg>

<svg width="38" height="72" fill="none" xmlns="http://www.w3.org/2000/svg"><path d="M25.167 41.375h8.958l3.583-14.333H25.167v-7.167c0-3.69 0-7.167 7.166-7.167h5.375V.668C36.54.514 32.13.167 27.471.167c-9.73 0-16.638 5.937-16.638 16.841v10.034H.083v14.333h10.75v30.458h14.334V41.375z" fill="#3C3C3C"/></svg>
